{
  "compressionlevel": -1,
  "height": 3,
  "infinite": false,
  "layers": [
    {
      "data": [
        1,
        1,
        2,
        2,
        1,
        3,
        4,
        2,
        3,
        3,
        4,
        4
      ],
      "height": 3,
      "id": 1,
      "name": "Ground",
      "opacity": 1,
      "type": "tilelayer",
      "visible": true,
      "width": 4,
      "x": 0,
      "y": 0
    }
  ],
  "nextlayerid": 2,
  "nextobjectid": 1,
  "orientation": "orthogonal",
  "renderorder": "right-down",
  "tiledversion": "1.12.2",
  "tileheight": 16,
  "tilesets": [
    {
      "firstgid": 1,
      "source": "basic.tsj"
    }
  ],
  "tilewidth": 16,
  "type": "map",
  "version": "1.10",
  "width": 4
}
